(Projekt EndSchalterMount)
(Erstellt mit Estlcam Version 11 Build 11,113)
(Laufzeit ca. 00:15:10 Stunden)

(Benoetigte Werkzeuge:)
(Fraeser 3mm)

G90
M03 S24000
G00 Z5.0000


(Nr. 1: Ausschnitt 1)
G00 X37.5000 Y35.5000
G00 Z0.5000
G01 Z-2.0000 F600 S24000
G01 Y144.5000 F1200
G01 X102.5000
G01 Y35.5000
G01 X37.5000
G01 Z-4.0000 F600
G01 Y144.5000 F1200
G01 X102.5000
G01 Y35.5000
G01 X37.5000
G01 Z-6.0000 F600
G01 Y144.5000 F1200
G01 X102.5000
G01 Y35.5000
G01 X37.5000
G00 Z5.0000


(Nr. 2: Ausschnitt 2)
G00 X14.3925 Y109.5546 Z5.0000
G00 Z0.5000
G01 Z-2.0000 F600
G02 X12.3206 Y115.2487 I0.6078 J3.4451 F1200
G02 X18.2878 Y114.1959 I2.6797 J-2.2489
G02 X14.3925 Y109.5546 I-3.2875 J-1.1962
G01 Z-3.0000 F600
G02 X12.3206 Y115.2487 I0.6078 J3.4451 F1200
G02 X18.2878 Y114.1959 I2.6797 J-2.2489
G02 X14.3925 Y109.5546 I-3.2875 J-1.1962
G00 Z5.0000


(Nr. 3: Ausschnitt 7)
G00 X14.9234 Y112.5070 Z5.0000
G00 Z0.5000
G01 Z-2.0000 F600
G02 X14.6114 Y113.3128 I0.0766 J0.4930 F1200
G02 X15.4652 Y113.1802 I0.3886 J-0.3128
G02 X14.9234 Y112.5070 I-0.4652 J-0.1802
G01 Z-4.0000 F600
G02 X14.6114 Y113.3128 I0.0766 J0.4930 F1200
G02 X15.4652 Y113.1802 I0.3886 J-0.3128
G02 X14.9234 Y112.5070 I-0.4652 J-0.1802
G01 Z-6.0000 F600
G02 X14.6114 Y113.3128 I0.0766 J0.4930 F1200
G02 X15.4652 Y113.1802 I0.3886 J-0.3128
G02 X14.9234 Y112.5070 I-0.4652 J-0.1802
G00 Z5.0000


(Nr. 4: Ausschnitt 5)
G00 X14.6951 Y188.5147 Z5.0000
G00 Z0.5000
G01 Z-2.0000 F600
G02 X12.1341 Y194.0067 I0.3049 J3.4853 F1200
G02 X18.1708 Y193.4786 I2.8659 J-2.0067
G02 X14.6951 Y188.5147 I-3.1708 J-1.4786
G01 Z-3.0000 F600
G02 X12.1341 Y194.0067 I0.3049 J3.4853 F1200
G02 X18.1708 Y193.4786 I2.8659 J-2.0067
G02 X14.6951 Y188.5147 I-3.1708 J-1.4786
G00 Z5.0000


(Nr. 5: Ausschnitt 6)
G00 X14.9730 Y191.5029 Z5.0000
G00 Z0.5000
G01 Z-2.0000 F600
G02 X14.6067 Y192.2856 I0.0428 J0.4971 F1200
G02 X15.4677 Y192.2115 I0.4091 J-0.2856
G02 X14.9730 Y191.5029 I-0.4519 J-0.2115
G01 Z-4.0000 F600
G02 X14.6067 Y192.2856 I0.0428 J0.4971 F1200
G02 X15.4677 Y192.2115 I0.4091 J-0.2856
G02 X14.9730 Y191.5029 I-0.4519 J-0.2115
G01 Z-6.0000 F600
G02 X14.6067 Y192.2856 I0.0428 J0.4971 F1200
G02 X15.4677 Y192.2115 I0.4091 J-0.2856
G02 X14.9730 Y191.5029 I-0.4519 J-0.2115
G00 Z5.0000


(Nr. 6: Ausschnitt 1)
G00 X37.5000 Y244.5000 Z5.0000
G00 Z0.5000
G01 Z-2.0000 F600
G01 Y353.5000 F1200
G01 X102.5000
G01 Y244.5000
G01 X37.5000
G01 Z-4.0000 F600
G01 Y353.5000 F1200
G01 X102.5000
G01 Y244.5000
G01 X37.5000
G01 Z-6.0000 F600
G01 Y353.5000 F1200
G01 X102.5000
G01 Y244.5000
G01 X37.5000
G00 Z5.0000


(Nr. 7: Ausschnitt 2)
G00 X14.3925 Y318.5546 Z5.0000
G00 Z0.5000
G01 Z-2.0000 F600
G02 X12.3206 Y324.2487 I0.6078 J3.4451 F1200
G02 X18.2878 Y323.1959 I2.6797 J-2.2489
G02 X14.3925 Y318.5546 I-3.2875 J-1.1962
G01 Z-3.0000 F600
G02 X12.3206 Y324.2487 I0.6078 J3.4451 F1200
G02 X18.2878 Y323.1959 I2.6797 J-2.2489
G02 X14.3925 Y318.5546 I-3.2875 J-1.1962
G00 Z5.0000


(Nr. 8: Ausschnitt 7)
G00 X14.9234 Y321.5070 Z5.0000
G00 Z0.5000
G01 Z-2.0000 F600
G02 X14.6114 Y322.3128 I0.0766 J0.4930 F1200
G02 X15.4652 Y322.1802 I0.3886 J-0.3128
G02 X14.9234 Y321.5070 I-0.4652 J-0.1802
G01 Z-4.0000 F600
G02 X14.6114 Y322.3128 I0.0766 J0.4930 F1200
G02 X15.4652 Y322.1802 I0.3886 J-0.3128
G02 X14.9234 Y321.5070 I-0.4652 J-0.1802
G01 Z-6.0000 F600
G02 X14.6114 Y322.3128 I0.0766 J0.4930 F1200
G02 X15.4652 Y322.1802 I0.3886 J-0.3128
G02 X14.9234 Y321.5070 I-0.4652 J-0.1802
G00 Z5.0000


(Nr. 9: Ausschnitt 5)
G00 X14.6951 Y397.5147 Z5.0000
G00 Z0.5000
G01 Z-2.0000 F600
G02 X12.1341 Y403.0067 I0.3049 J3.4853 F1200
G02 X18.1708 Y402.4786 I2.8659 J-2.0067
G02 X14.6951 Y397.5147 I-3.1708 J-1.4786
G01 Z-3.0000 F600
G02 X12.1341 Y403.0067 I0.3049 J3.4853 F1200
G02 X18.1708 Y402.4786 I2.8659 J-2.0067
G02 X14.6951 Y397.5147 I-3.1708 J-1.4786
G00 Z5.0000


(Nr. 10: Ausschnitt 6)
G00 X14.9730 Y400.5029 Z5.0000
G00 Z0.5000
G01 Z-2.0000 F600
G02 X14.6067 Y401.2856 I0.0428 J0.4971 F1200
G02 X15.4677 Y401.2115 I0.4091 J-0.2856
G02 X14.9730 Y400.5029 I-0.4519 J-0.2115
G01 Z-4.0000 F600
G02 X14.6067 Y401.2856 I0.0428 J0.4971 F1200
G02 X15.4677 Y401.2115 I0.4091 J-0.2856
G02 X14.9730 Y400.5029 I-0.4519 J-0.2115
G01 Z-6.0000 F600
G02 X14.6067 Y401.2856 I0.0428 J0.4971 F1200
G02 X15.4677 Y401.2115 I0.4091 J-0.2856
G02 X14.9730 Y400.5029 I-0.4519 J-0.2115
G00 Z5.0000


(Nr. 11: Ausschnitt 4)
G00 X122.9933 Y398.1341 Z5.0000
G00 Z0.5000
G01 Z-2.0000 F600
G02 X123.5219 Y404.1704 I2.0068 J2.8655 F1200
G02 X128.4851 Y400.6944 I1.4782 J-3.1707
G02 X122.9933 Y398.1341 I-3.4850 J0.3052
G01 Z-3.0000 F600
G02 X123.5219 Y404.1704 I2.0068 J2.8655 F1200
G02 X128.4851 Y400.6944 I1.4782 J-3.1707
G02 X122.9933 Y398.1341 I-3.4850 J0.3052
G00 Z5.0000


(Nr. 12: Ausschnitt 8)
G00 X124.7175 Y400.5783 Z5.0000
G00 Z0.5000
G01 Z-2.0000 F600
G02 X124.7524 Y401.4418 I0.2667 J0.4217 F1200
G02 X125.4827 Y400.9799 I0.2318 J-0.4418
G02 X124.7175 Y400.5783 I-0.4985 J0.0201
G01 Z-4.0000 F600
G02 X124.7524 Y401.4418 I0.2667 J0.4217 F1200
G02 X125.4827 Y400.9799 I0.2318 J-0.4418
G02 X124.7175 Y400.5783 I-0.4985 J0.0201
G01 Z-6.0000 F600
G02 X124.7524 Y401.4418 I0.2667 J0.4217 F1200
G02 X125.4827 Y400.9799 I0.2318 J-0.4418
G02 X124.7175 Y400.5783 I-0.4985 J0.0201
G00 Z5.0000


(Nr. 13: Ausschnitt 5)
G00 X163.6951 Y397.5147 Z5.0000
G00 Z0.5000
G01 Z-2.0000 F600
G02 X161.1341 Y403.0067 I0.3049 J3.4853 F1200
G02 X167.1708 Y402.4786 I2.8659 J-2.0067
G02 X163.6951 Y397.5147 I-3.1708 J-1.4786
G01 Z-3.0000 F600
G02 X161.1341 Y403.0067 I0.3049 J3.4853 F1200
G02 X167.1708 Y402.4786 I2.8659 J-2.0067
G02 X163.6951 Y397.5147 I-3.1708 J-1.4786
G00 Z5.0000


(Nr. 14: Ausschnitt 6)
G00 X163.9730 Y400.5029 Z5.0000
G00 Z0.5000
G01 Z-2.0000 F600
G02 X163.6067 Y401.2856 I0.0428 J0.4971 F1200
G02 X164.4677 Y401.2115 I0.4091 J-0.2856
G02 X163.9730 Y400.5029 I-0.4519 J-0.2115
G01 Z-4.0000 F600
G02 X163.6067 Y401.2856 I0.0428 J0.4971 F1200
G02 X164.4677 Y401.2115 I0.4091 J-0.2856
G02 X163.9730 Y400.5029 I-0.4519 J-0.2115
G01 Z-6.0000 F600
G02 X163.6067 Y401.2856 I0.0428 J0.4971 F1200
G02 X164.4677 Y401.2115 I0.4091 J-0.2856
G02 X163.9730 Y400.5029 I-0.4519 J-0.2115
G00 Z5.0000


(Nr. 15: Ausschnitt 7)
G00 X163.9234 Y321.5070 Z5.0000
G00 Z0.5000
G01 Z-2.0000 F600
G02 X163.6114 Y322.3128 I0.0766 J0.4930 F1200
G02 X164.4652 Y322.1802 I0.3886 J-0.3128
G02 X163.9234 Y321.5070 I-0.4652 J-0.1802
G01 Z-4.0000 F600
G02 X163.6114 Y322.3128 I0.0766 J0.4930 F1200
G02 X164.4652 Y322.1802 I0.3886 J-0.3128
G02 X163.9234 Y321.5070 I-0.4652 J-0.1802
G01 Z-6.0000 F600
G02 X163.6114 Y322.3128 I0.0766 J0.4930 F1200
G02 X164.4652 Y322.1802 I0.3886 J-0.3128
G02 X163.9234 Y321.5070 I-0.4652 J-0.1802
G00 Z5.0000


(Nr. 16: Ausschnitt 2)
G00 X163.3925 Y318.5546 Z5.0000
G00 Z0.5000
G01 Z-2.0000 F600
G02 X161.3206 Y324.2487 I0.6078 J3.4451 F1200
G02 X167.2878 Y323.1959 I2.6797 J-2.2489
G02 X163.3925 Y318.5546 I-3.2875 J-1.1962
G01 Z-3.0000 F600
G02 X161.3206 Y324.2487 I0.6078 J3.4451 F1200
G02 X167.2878 Y323.1959 I2.6797 J-2.2489
G02 X163.3925 Y318.5546 I-3.2875 J-1.1962
G00 Z5.0000


(Nr. 17: Ausschnitt 9)
G00 X124.6295 Y321.6659 Z5.0000
G00 Z0.5000
G01 Z-2.0000 F600
G02 X124.8959 Y322.4879 I0.3705 J0.3341 F1200
G02 X125.4746 Y321.8461 I0.1041 J-0.4879
G02 X124.6295 Y321.6659 I-0.4746 J0.1539
G01 Z-4.0000 F600
G02 X124.8959 Y322.4879 I0.3705 J0.3341 F1200
G02 X125.4746 Y321.8461 I0.1041 J-0.4879
G02 X124.6295 Y321.6659 I-0.4746 J0.1539
G01 Z-6.0000 F600
G02 X124.8959 Y322.4879 I0.3705 J0.3341 F1200
G02 X125.4746 Y321.8461 I0.1041 J-0.4879
G02 X124.6295 Y321.6659 I-0.4746 J0.1539
G00 Z5.0000


(Nr. 18: Ausschnitt 3)
G00 X122.3199 Y319.7512 Z5.0000
G00 Z0.5000
G01 Z-2.0000 F600
G02 X124.3929 Y325.4449 I2.6801 J2.2484 F1200
G02 X128.2873 Y320.8028 I0.6071 J-3.4453
G02 X122.3199 Y319.7512 I-3.2873 J1.1968
G01 Z-3.0000 F600
G02 X124.3929 Y325.4449 I2.6801 J2.2484 F1200
G02 X128.2873 Y320.8028 I0.6071 J-3.4453
G02 X122.3199 Y319.7512 I-3.2873 J1.1968
G00 Z5.0000


(Nr. 19: Ausschnitt 1)
G00 X186.5000 Y244.5000 Z5.0000
G00 Z0.5000
G01 Z-2.0000 F600
G01 Y353.5000 F1200
G01 X251.5000
G01 Y244.5000
G01 X186.5000
G01 Z-4.0000 F600
G01 Y353.5000 F1200
G01 X251.5000
G01 Y244.5000
G01 X186.5000
G01 Z-6.0000 F600
G01 Y353.5000 F1200
G01 X251.5000
G01 Y244.5000
G01 X186.5000
G00 Z5.0000


(Nr. 20: Ausschnitt 6)
G00 X163.9730 Y191.5029 Z5.0000
G00 Z0.5000
G01 Z-2.0000 F600
G02 X163.6067 Y192.2856 I0.0428 J0.4971 F1200
G02 X164.4677 Y192.2115 I0.4091 J-0.2856
G02 X163.9730 Y191.5029 I-0.4519 J-0.2115
G01 Z-4.0000 F600
G02 X163.6067 Y192.2856 I0.0428 J0.4971 F1200
G02 X164.4677 Y192.2115 I0.4091 J-0.2856
G02 X163.9730 Y191.5029 I-0.4519 J-0.2115
G01 Z-6.0000 F600
G02 X163.6067 Y192.2856 I0.0428 J0.4971 F1200
G02 X164.4677 Y192.2115 I0.4091 J-0.2856
G02 X163.9730 Y191.5029 I-0.4519 J-0.2115
G00 Z5.0000


(Nr. 21: Ausschnitt 5)
G00 X163.6951 Y188.5147 Z5.0000
G00 Z0.5000
G01 Z-2.0000 F600
G02 X161.1341 Y194.0067 I0.3049 J3.4853 F1200
G02 X167.1708 Y193.4786 I2.8659 J-2.0067
G02 X163.6951 Y188.5147 I-3.1708 J-1.4786
G01 Z-3.0000 F600
G02 X161.1341 Y194.0067 I0.3049 J3.4853 F1200
G02 X167.1708 Y193.4786 I2.8659 J-2.0067
G02 X163.6951 Y188.5147 I-3.1708 J-1.4786
G00 Z5.0000


(Nr. 22: Ausschnitt 8)
G00 X124.7175 Y191.5783 Z5.0000
G00 Z0.5000
G01 Z-2.0000 F600
G02 X124.7524 Y192.4418 I0.2667 J0.4217 F1200
G02 X125.4827 Y191.9799 I0.2318 J-0.4418
G02 X124.7175 Y191.5783 I-0.4985 J0.0201
G01 Z-4.0000 F600
G02 X124.7524 Y192.4418 I0.2667 J0.4217 F1200
G02 X125.4827 Y191.9799 I0.2318 J-0.4418
G02 X124.7175 Y191.5783 I-0.4985 J0.0201
G01 Z-6.0000 F600
G02 X124.7524 Y192.4418 I0.2667 J0.4217 F1200
G02 X125.4827 Y191.9799 I0.2318 J-0.4418
G02 X124.7175 Y191.5783 I-0.4985 J0.0201
G00 Z5.0000


(Nr. 23: Ausschnitt 4)
G00 X122.9933 Y189.1341 Z5.0000
G00 Z0.5000
G01 Z-2.0000 F600
G02 X123.5219 Y195.1704 I2.0068 J2.8655 F1200
G02 X128.4851 Y191.6944 I1.4782 J-3.1707
G02 X122.9933 Y189.1341 I-3.4850 J0.3052
G01 Z-3.0000 F600
G02 X123.5219 Y195.1704 I2.0068 J2.8655 F1200
G02 X128.4851 Y191.6944 I1.4782 J-3.1707
G02 X122.9933 Y189.1341 I-3.4850 J0.3052
G00 Z5.0000


(Nr. 24: Ausschnitt 9)
G00 X124.6295 Y112.6659 Z5.0000
G00 Z0.5000
G01 Z-2.0000 F600
G02 X124.8959 Y113.4879 I0.3705 J0.3341 F1200
G02 X125.4746 Y112.8461 I0.1041 J-0.4879
G02 X124.6295 Y112.6659 I-0.4746 J0.1539
G01 Z-4.0000 F600
G02 X124.8959 Y113.4879 I0.3705 J0.3341 F1200
G02 X125.4746 Y112.8461 I0.1041 J-0.4879
G02 X124.6295 Y112.6659 I-0.4746 J0.1539
G01 Z-6.0000 F600
G02 X124.8959 Y113.4879 I0.3705 J0.3341 F1200
G02 X125.4746 Y112.8461 I0.1041 J-0.4879
G02 X124.6295 Y112.6659 I-0.4746 J0.1539
G00 Z5.0000


(Nr. 25: Ausschnitt 3)
G00 X122.3199 Y110.7512 Z5.0000
G00 Z0.5000
G01 Z-2.0000 F600
G02 X124.3929 Y116.4449 I2.6801 J2.2484 F1200
G02 X128.2873 Y111.8028 I0.6071 J-3.4453
G02 X122.3199 Y110.7512 I-3.2873 J1.1968
G01 Z-3.0000 F600
G02 X124.3929 Y116.4449 I2.6801 J2.2484 F1200
G02 X128.2873 Y111.8028 I0.6071 J-3.4453
G02 X122.3199 Y110.7512 I-3.2873 J1.1968
G00 Z5.0000


(Nr. 26: Ausschnitt 2)
G00 X163.3925 Y109.5546 Z5.0000
G00 Z0.5000
G01 Z-2.0000 F600
G02 X161.3206 Y115.2487 I0.6078 J3.4451 F1200
G02 X167.2878 Y114.1959 I2.6797 J-2.2489
G02 X163.3925 Y109.5546 I-3.2875 J-1.1962
G01 Z-3.0000 F600
G02 X161.3206 Y115.2487 I0.6078 J3.4451 F1200
G02 X167.2878 Y114.1959 I2.6797 J-2.2489
G02 X163.3925 Y109.5546 I-3.2875 J-1.1962
G00 Z5.0000


(Nr. 27: Ausschnitt 7)
G00 X163.9234 Y112.5070 Z5.0000
G00 Z0.5000
G01 Z-2.0000 F600
G02 X163.6114 Y113.3128 I0.0766 J0.4930 F1200
G02 X164.4652 Y113.1802 I0.3886 J-0.3128
G02 X163.9234 Y112.5070 I-0.4652 J-0.1802
G01 Z-4.0000 F600
G02 X163.6114 Y113.3128 I0.0766 J0.4930 F1200
G02 X164.4652 Y113.1802 I0.3886 J-0.3128
G02 X163.9234 Y112.5070 I-0.4652 J-0.1802
G01 Z-6.0000 F600
G02 X163.6114 Y113.3128 I0.0766 J0.4930 F1200
G02 X164.4652 Y113.1802 I0.3886 J-0.3128
G02 X163.9234 Y112.5070 I-0.4652 J-0.1802
G00 Z5.0000


(Nr. 28: Ausschnitt 1)
G00 X186.5000 Y35.5000 Z5.0000
G00 Z0.5000
G01 Z-2.0000 F600
G01 Y144.5000 F1200
G01 X251.5000
G01 Y35.5000
G01 X186.5000
G01 Z-4.0000 F600
G01 Y144.5000 F1200
G01 X251.5000
G01 Y35.5000
G01 X186.5000
G01 Z-6.0000 F600
G01 Y144.5000 F1200
G01 X251.5000
G01 Y35.5000
G01 X186.5000
G00 Z5.0000


(Nr. 29: Ausschnitt 3)
G00 X271.3199 Y110.7512 Z5.0000
G00 Z0.5000
G01 Z-2.0000 F600
G02 X273.3929 Y116.4449 I2.6801 J2.2484 F1200
G02 X277.2873 Y111.8028 I0.6071 J-3.4453
G02 X271.3199 Y110.7512 I-3.2873 J1.1968
G01 Z-3.0000 F600
G02 X273.3929 Y116.4449 I2.6801 J2.2484 F1200
G02 X277.2873 Y111.8028 I0.6071 J-3.4453
G02 X271.3199 Y110.7512 I-3.2873 J1.1968
G00 Z5.0000


(Nr. 30: Ausschnitt 9)
G00 X273.6295 Y112.6659 Z5.0000
G00 Z0.5000
G01 Z-2.0000 F600
G02 X273.8959 Y113.4879 I0.3705 J0.3341 F1200
G02 X274.4746 Y112.8461 I0.1041 J-0.4879
G02 X273.6295 Y112.6659 I-0.4746 J0.1539
G01 Z-4.0000 F600
G02 X273.8959 Y113.4879 I0.3705 J0.3341 F1200
G02 X274.4746 Y112.8461 I0.1041 J-0.4879
G02 X273.6295 Y112.6659 I-0.4746 J0.1539
G01 Z-6.0000 F600
G02 X273.8959 Y113.4879 I0.3705 J0.3341 F1200
G02 X274.4746 Y112.8461 I0.1041 J-0.4879
G02 X273.6295 Y112.6659 I-0.4746 J0.1539
G00 Z5.0000


(Nr. 31: Ausschnitt 4)
G00 X271.9933 Y189.1341 Z5.0000
G00 Z0.5000
G01 Z-2.0000 F600
G02 X272.5219 Y195.1704 I2.0068 J2.8655 F1200
G02 X277.4851 Y191.6944 I1.4782 J-3.1707
G02 X271.9933 Y189.1341 I-3.4850 J0.3052
G01 Z-3.0000 F600
G02 X272.5219 Y195.1704 I2.0068 J2.8655 F1200
G02 X277.4851 Y191.6944 I1.4782 J-3.1707
G02 X271.9933 Y189.1341 I-3.4850 J0.3052
G00 Z5.0000


(Nr. 32: Ausschnitt 8)
G00 X273.7175 Y191.5783 Z5.0000
G00 Z0.5000
G01 Z-2.0000 F600
G02 X273.7524 Y192.4418 I0.2667 J0.4217 F1200
G02 X274.4827 Y191.9799 I0.2318 J-0.4418
G02 X273.7175 Y191.5783 I-0.4985 J0.0201
G01 Z-4.0000 F600
G02 X273.7524 Y192.4418 I0.2667 J0.4217 F1200
G02 X274.4827 Y191.9799 I0.2318 J-0.4418
G02 X273.7175 Y191.5783 I-0.4985 J0.0201
G01 Z-6.0000 F600
G02 X273.7524 Y192.4418 I0.2667 J0.4217 F1200
G02 X274.4827 Y191.9799 I0.2318 J-0.4418
G02 X273.7175 Y191.5783 I-0.4985 J0.0201
G00 Z5.0000


(Nr. 33: Ausschnitt 3)
G00 X271.3199 Y319.7512 Z5.0000
G00 Z0.5000
G01 Z-2.0000 F600
G02 X273.3929 Y325.4449 I2.6801 J2.2484 F1200
G02 X277.2873 Y320.8028 I0.6071 J-3.4453
G02 X271.3199 Y319.7512 I-3.2873 J1.1968
G01 Z-3.0000 F600
G02 X273.3929 Y325.4449 I2.6801 J2.2484 F1200
G02 X277.2873 Y320.8028 I0.6071 J-3.4453
G02 X271.3199 Y319.7512 I-3.2873 J1.1968
G00 Z5.0000


(Nr. 34: Ausschnitt 9)
G00 X273.6295 Y321.6659 Z5.0000
G00 Z0.5000
G01 Z-2.0000 F600
G02 X273.8959 Y322.4879 I0.3705 J0.3341 F1200
G02 X274.4746 Y321.8461 I0.1041 J-0.4879
G02 X273.6295 Y321.6659 I-0.4746 J0.1539
G01 Z-4.0000 F600
G02 X273.8959 Y322.4879 I0.3705 J0.3341 F1200
G02 X274.4746 Y321.8461 I0.1041 J-0.4879
G02 X273.6295 Y321.6659 I-0.4746 J0.1539
G01 Z-6.0000 F600
G02 X273.8959 Y322.4879 I0.3705 J0.3341 F1200
G02 X274.4746 Y321.8461 I0.1041 J-0.4879
G02 X273.6295 Y321.6659 I-0.4746 J0.1539
G00 Z5.0000


(Nr. 35: Ausschnitt 4)
G00 X271.9933 Y398.1341 Z5.0000
G00 Z0.5000
G01 Z-2.0000 F600
G02 X272.5219 Y404.1704 I2.0068 J2.8655 F1200
G02 X277.4851 Y400.6944 I1.4782 J-3.1707
G02 X271.9933 Y398.1341 I-3.4850 J0.3052
G01 Z-3.0000 F600
G02 X272.5219 Y404.1704 I2.0068 J2.8655 F1200
G02 X277.4851 Y400.6944 I1.4782 J-3.1707
G02 X271.9933 Y398.1341 I-3.4850 J0.3052
G00 Z5.0000


(Nr. 36: Ausschnitt 8)
G00 X273.7175 Y400.5783 Z5.0000
G00 Z0.5000
G01 Z-2.0000 F600
G02 X273.7524 Y401.4418 I0.2667 J0.4217 F1200
G02 X274.4827 Y400.9799 I0.2318 J-0.4418
G02 X273.7175 Y400.5783 I-0.4985 J0.0201
G01 Z-4.0000 F600
G02 X273.7524 Y401.4418 I0.2667 J0.4217 F1200
G02 X274.4827 Y400.9799 I0.2318 J-0.4418
G02 X273.7175 Y400.5783 I-0.4985 J0.0201
G01 Z-6.0000 F600
G02 X273.7524 Y401.4418 I0.2667 J0.4217 F1200
G02 X274.4827 Y400.9799 I0.2318 J-0.4418
G02 X273.7175 Y400.5783 I-0.4985 J0.0201
G00 Z5.0000


(Nr. 37: Teil 1)
G00 X289.0000 Y207.5000 Z5.0000
G00 Z0.5000
G01 Z-2.0000 F600
G03 X290.5000 Y209.0200 I-0.0001 J1.5002 F1200
G01 Y409.0000
G03 X288.9800 Y410.5000 I-1.5002 J-0.0001
G01 X270.0000
G03 X268.6032 Y409.5472 I0.0001 J-1.5004
G02 X169.3258 Y409.7016 I-49.6086 J19.4608
G03 X167.9800 Y410.5000 I-1.3262 J-0.7020
G01 X149.0000
G03 X147.5038 Y409.1061 I0.0000 J-1.5000
G01 X147.5000 Y408.9800
G01 Y209.0000
G03 X147.5670 Y208.5567 I1.5000 J0.0000
G03 X149.0200 Y207.5000 I1.4333 J0.4435
G01 X289.0000
G01 Z-4.0000 F600
G03 X290.5000 Y209.0200 I-0.0001 J1.5002 F1200
G01 Y409.0000
G03 X288.9800 Y410.5000 I-1.5002 J-0.0001
G01 X270.0000
G03 X268.6032 Y409.5472 I0.0001 J-1.5004
G02 X169.3258 Y409.7016 I-49.6086 J19.4608
G03 X167.9800 Y410.5000 I-1.3262 J-0.7020
G01 X149.0000
G03 X147.5038 Y409.1061 I0.0000 J-1.5000
G01 X147.5000 Y408.9800
G01 Y209.0000
G03 X147.5670 Y208.5567 I1.5000 J0.0000
G03 X149.0200 Y207.5000 I1.4333 J0.4435
G01 X289.0000
G01 Z-6.0000 F600
G03 X290.5000 Y209.0200 I-0.0001 J1.5002 F1200
G01 Y409.0000
G03 X288.9800 Y410.5000 I-1.5002 J-0.0001
G01 X270.0000
G03 X268.6032 Y409.5472 I0.0001 J-1.5004
G02 X169.3258 Y409.7016 I-49.6086 J19.4608
G03 X167.9800 Y410.5000 I-1.3262 J-0.7020
G01 X149.0000
G03 X147.5038 Y409.1061 I0.0000 J-1.5000
G01 X147.5000 Y408.9800
G01 Y209.0000
G03 X147.5670 Y208.5567 I1.5000 J0.0000
G03 X149.0200 Y207.5000 I1.4333 J0.4435
G01 X289.0000
G00 Z5.0000


(Nr. 38: Teil 1)
G00 X140.0000 Y207.5000 Z5.0000
G00 Z0.5000
G01 Z-2.0000 F600
G03 X141.5000 Y209.0200 I-0.0001 J1.5002 F1200
G01 Y409.0000
G03 X139.9800 Y410.5000 I-1.5002 J-0.0001
G01 X121.0000
G03 X119.6032 Y409.5472 I0.0001 J-1.5004
G02 X20.3258 Y409.7016 I-49.6086 J19.4608
G03 X18.9800 Y410.5000 I-1.3262 J-0.7020
G01 X0.0000
G03 X-1.4962 Y409.1061 I0.0000 J-1.5000
G01 X-1.5000 Y408.9800
G01 Y209.0000
G03 X-1.4330 Y208.5567 I1.5000 J0.0000
G03 X0.0200 Y207.5000 I1.4333 J0.4435
G01 X140.0000
G01 Z-4.0000 F600
G03 X141.5000 Y209.0200 I-0.0001 J1.5002 F1200
G01 Y409.0000
G03 X139.9800 Y410.5000 I-1.5002 J-0.0001
G01 X121.0000
G03 X119.6032 Y409.5472 I0.0001 J-1.5004
G02 X20.3258 Y409.7016 I-49.6086 J19.4608
G03 X18.9800 Y410.5000 I-1.3262 J-0.7020
G01 X0.0000
G03 X-1.4962 Y409.1061 I0.0000 J-1.5000
G01 X-1.5000 Y408.9800
G01 Y209.0000
G03 X-1.4330 Y208.5567 I1.5000 J0.0000
G03 X0.0200 Y207.5000 I1.4333 J0.4435
G01 X140.0000
G01 Z-6.0000 F600
G03 X141.5000 Y209.0200 I-0.0001 J1.5002 F1200
G01 Y409.0000
G03 X139.9800 Y410.5000 I-1.5002 J-0.0001
G01 X121.0000
G03 X119.6032 Y409.5472 I0.0001 J-1.5004
G02 X20.3258 Y409.7016 I-49.6086 J19.4608
G03 X18.9800 Y410.5000 I-1.3262 J-0.7020
G01 X0.0000
G03 X-1.4962 Y409.1061 I0.0000 J-1.5000
G01 X-1.5000 Y408.9800
G01 Y209.0000
G03 X-1.4330 Y208.5567 I1.5000 J0.0000
G03 X0.0200 Y207.5000 I1.4333 J0.4435
G01 X140.0000
G00 Z5.0000


(Nr. 39: Teil 1)
G00 X140.0000 Y-1.5000 Z5.0000
G00 Z0.5000
G01 Z-2.0000 F600
G03 X141.5000 Y0.0200 I-0.0001 J1.5002 F1200
G01 Y200.0000
G03 X139.9800 Y201.5000 I-1.5002 J-0.0001
G01 X121.0000
G03 X119.6032 Y200.5472 I0.0001 J-1.5004
G02 X20.3258 Y200.7016 I-49.6086 J19.4608
G03 X18.9800 Y201.5000 I-1.3262 J-0.7020
G01 X0.0000
G03 X-1.4962 Y200.1061 I0.0000 J-1.5000
G01 X-1.5000 Y199.9800
G01 Y0.0000
G03 X-1.4330 Y-0.4433 I1.5000 J0.0000
G03 X0.0200 Y-1.5000 I1.4333 J0.4435
G01 X140.0000
G01 Z-4.0000 F600
G03 X141.5000 Y0.0200 I-0.0001 J1.5002 F1200
G01 Y200.0000
G03 X139.9800 Y201.5000 I-1.5002 J-0.0001
G01 X121.0000
G03 X119.6032 Y200.5472 I0.0001 J-1.5004
G02 X20.3258 Y200.7016 I-49.6086 J19.4608
G03 X18.9800 Y201.5000 I-1.3262 J-0.7020
G01 X0.0000
G03 X-1.4962 Y200.1061 I0.0000 J-1.5000
G01 X-1.5000 Y199.9800
G01 Y0.0000
G03 X-1.4330 Y-0.4433 I1.5000 J0.0000
G03 X0.0200 Y-1.5000 I1.4333 J0.4435
G01 X140.0000
G01 Z-6.0000 F600
G03 X141.5000 Y0.0200 I-0.0001 J1.5002 F1200
G01 Y200.0000
G03 X139.9800 Y201.5000 I-1.5002 J-0.0001
G01 X121.0000
G03 X119.6032 Y200.5472 I0.0001 J-1.5004
G02 X20.3258 Y200.7016 I-49.6086 J19.4608
G03 X18.9800 Y201.5000 I-1.3262 J-0.7020
G01 X0.0000
G03 X-1.4962 Y200.1061 I0.0000 J-1.5000
G01 X-1.5000 Y199.9800
G01 Y0.0000
G03 X-1.4330 Y-0.4433 I1.5000 J0.0000
G03 X0.0200 Y-1.5000 I1.4333 J0.4435
G01 X140.0000
G00 Z5.0000


(Nr. 40: Teil 1)
G00 X289.0000 Y-1.5000 Z5.0000
G00 Z0.5000
G01 Z-2.0000 F600
G03 X290.5000 Y0.0200 I-0.0001 J1.5002 F1200
G01 Y200.0000
G03 X288.9800 Y201.5000 I-1.5002 J-0.0001
G01 X270.0000
G03 X268.6032 Y200.5472 I0.0001 J-1.5004
G02 X169.3258 Y200.7016 I-49.6086 J19.4608
G03 X167.9800 Y201.5000 I-1.3262 J-0.7020
G01 X149.0000
G03 X147.5038 Y200.1061 I0.0000 J-1.5000
G01 X147.5000 Y199.9800
G01 Y0.0000
G03 X147.5670 Y-0.4433 I1.5000 J0.0000
G03 X149.0200 Y-1.5000 I1.4333 J0.4435
G01 X289.0000
G01 Z-4.0000 F600
G03 X290.5000 Y0.0200 I-0.0001 J1.5002 F1200
G01 Y200.0000
G03 X288.9800 Y201.5000 I-1.5002 J-0.0001
G01 X270.0000
G03 X268.6032 Y200.5472 I0.0001 J-1.5004
G02 X169.3258 Y200.7016 I-49.6086 J19.4608
G03 X167.9800 Y201.5000 I-1.3262 J-0.7020
G01 X149.0000
G03 X147.5038 Y200.1061 I0.0000 J-1.5000
G01 X147.5000 Y199.9800
G01 Y0.0000
G03 X147.5670 Y-0.4433 I1.5000 J0.0000
G03 X149.0200 Y-1.5000 I1.4333 J0.4435
G01 X289.0000
G01 Z-6.0000 F600
G03 X290.5000 Y0.0200 I-0.0001 J1.5002 F1200
G01 Y200.0000
G03 X288.9800 Y201.5000 I-1.5002 J-0.0001
G01 X270.0000
G03 X268.6032 Y200.5472 I0.0001 J-1.5004
G02 X169.3258 Y200.7016 I-49.6086 J19.4608
G03 X167.9800 Y201.5000 I-1.3262 J-0.7020
G01 X149.0000
G03 X147.5038 Y200.1061 I0.0000 J-1.5000
G01 X147.5000 Y199.9800
G01 Y0.0000
G03 X147.5670 Y-0.4433 I1.5000 J0.0000
G03 X149.0200 Y-1.5000 I1.4333 J0.4435
G01 X289.0000
G00 Z5.0000
G00 X0.0000 Y0.0000

M05
M30
