(Projekt SeitenteilGross)
(Erstellt mit Estlcam Version 11 Build 11,112)
(Laufzeit ca. 00:09:04 Stunden)

(Benoetigte Werkzeuge:)
(Fraeser 3mm)

G90
M03 S24000
G00 Z5.0000


(Nr. 1: Ausschnitt 4)
G00 X1.8720 Y3.1920
G00 Z0.5000
G01 Z-2.0000 F600 S24000
G01 X266.1280 F1200
G01 Y6.0000
G01 X1.8720
G01 Y8.8080
G01 X266.1280
G00 Z5.0000
G00 Z0.5000
G01 Z-2.0000 F600
G01 X266.4400 F1200
G01 Y1.5600
G01 X1.5600
G01 Y10.4400
G01 X266.4400
G01 Y8.8080
G01 X266.1280
G00 Z5.0000
G00 Y3.1920
G00 Z-1.5000
G01 Z-4.0000 F600
G01 X1.8720 F1200
G01 Y6.0000
G01 X266.1280
G01 Y8.8080
G01 X1.8720
G00 Z5.0000
G00 Z-1.5000
G01 Z-4.0000 F600
G01 X1.5600 F1200
G01 Y10.4400
G01 X266.4400
G01 Y1.5600
G01 X1.5600
G01 Y8.8080
G01 X1.8720
G00 Z5.0000
G00 Y3.1920
G00 Z-3.5000
G01 Z-6.0000 F600
G01 X266.1280 F1200
G01 Y6.0000
G01 X1.8720
G01 Y8.8080
G01 X266.1280
G00 Z5.0000
G00 Z-3.5000
G01 Z-6.0000 F600
G01 X266.4400 F1200
G01 Y1.5600
G01 X1.5600
G01 Y10.4400
G01 X266.4400
G01 Y8.8080
G01 X266.1280
G00 Z5.0000


(Nr. 2: Ausschnitt 2)
G00 X33.9717 Y40.2734 Z5.0000
G00 Z0.5000
G01 Z-2.0000 F600
G02 X47.2079 Y121.3686 I30.0283 J36.7266 F1200
G02 X110.8203 Y69.3581 I16.7921 J-44.3686
G02 X33.9717 Y40.2734 I-46.8203 J7.6419
G01 Z-4.0000 F600
G02 X47.2079 Y121.3686 I30.0283 J36.7266 F1200
G02 X110.8203 Y69.3581 I16.7921 J-44.3686
G02 X33.9717 Y40.2734 I-46.8203 J7.6419
G01 Z-6.0000 F600
G02 X47.2079 Y121.3686 I30.0283 J36.7266 F1200
G02 X110.8203 Y69.3581 I16.7921 J-44.3686
G02 X33.9717 Y40.2734 I-46.8203 J7.6419
G01 Z-8.0000 F600
G02 X47.2079 Y121.3686 I30.0283 J36.7266 F1200
G02 X110.8203 Y69.3581 I16.7921 J-44.3686
G02 X33.9717 Y40.2734 I-46.8203 J7.6419
G01 Z-10.0000 F600
G02 X47.2079 Y121.3686 I30.0283 J36.7266 F1200
G02 X110.8203 Y69.3581 I16.7921 J-44.3686
G02 X33.9717 Y40.2734 I-46.8203 J7.6419
G01 Z-12.0000 F600
G02 X47.2079 Y121.3686 I30.0283 J36.7266 F1200
G02 X110.8203 Y69.3581 I16.7921 J-44.3686
G02 X33.9717 Y40.2734 I-46.8203 J7.6419
G00 Z5.0000


(Nr. 3: Ausschnitt 1)
G00 X1.5624 Y135.4600 Z5.0000
G00 Z0.5000
G01 Z-2.0000 F600
G01 Y135.6049 F1200
G01 X266.4400
G01 Y135.4600
G01 X1.5624
G01 Z-4.0000 F600
G01 Y135.6049 F1200
G01 X266.4400
G01 Y135.4600
G01 X1.5624
G01 Z-6.0000 F600
G01 Y135.6049 F1200
G01 X266.4400
G01 Y135.4600
G01 X1.5624
G00 Z5.0000


(Nr. 4: Ausschnitt 3)
G00 X159.7933 Y59.7863 Z5.0000
G00 Z0.5000
G01 Z-2.0000 F600
G02 X211.1959 Y123.8910 I44.2067 J17.2137 F1200
G02 X241.0108 Y47.3227 I-7.1959 J-46.8909
G02 X159.7933 Y59.7863 I-37.0108 J29.6773
G01 Z-4.0000 F600
G02 X211.1959 Y123.8910 I44.2067 J17.2137 F1200
G02 X241.0108 Y47.3227 I-7.1959 J-46.8909
G02 X159.7933 Y59.7863 I-37.0108 J29.6773
G01 Z-6.0000 F600
G02 X211.1959 Y123.8910 I44.2067 J17.2137 F1200
G02 X241.0108 Y47.3227 I-7.1959 J-46.8909
G02 X159.7933 Y59.7863 I-37.0108 J29.6773
G01 Z-8.0000 F600
G02 X211.1959 Y123.8910 I44.2067 J17.2137 F1200
G02 X241.0108 Y47.3227 I-7.1959 J-46.8909
G02 X159.7933 Y59.7863 I-37.0108 J29.6773
G01 Z-10.0000 F600
G02 X211.1959 Y123.8910 I44.2067 J17.2137 F1200
G02 X241.0108 Y47.3227 I-7.1959 J-46.8909
G02 X159.7933 Y59.7863 I-37.0108 J29.6773
G01 Z-12.0000 F600
G02 X211.1959 Y123.8910 I44.2067 J17.2137 F1200
G02 X241.0108 Y47.3227 I-7.1959 J-46.8909
G02 X159.7933 Y59.7863 I-37.0108 J29.6773
G00 Z5.0000
G00 X0.0000 Y0.0000

M05
M30
