(Projekt SeitenteilLinks)
(Erstellt mit Estlcam Version 11 Build 11,112)
(Laufzeit ca. 00:04:46 Stunden)

(Benoetigte Werkzeuge:)
(Fraeser 3mm)

G90
M03 S24000
G00 Z5.0000


(Nr. 1: Ausschnitt 3)
G00 X-4.2000 Y1.9500
G00 Z0.5000
G01 Z-2.0000 F600 S24000
G01 X120.2000 F1200
G01 Y4.6500
G01 X-4.2000
G01 Y7.3500
G01 X120.2000
G01 Y10.0500
G01 X-4.2000
G00 Z5.0000
G00 Z0.5000
G01 Z-2.0000 F600
G01 X-4.5000 F1200
G01 Y10.5000
G01 X120.5000
G01 Y1.5000
G01 X-4.5000
G01 Y10.0500
G01 X-4.2000
G00 Z5.0000
G00 Y1.9500
G00 Z-1.5000
G01 Z-4.0000 F600
G01 X120.2000 F1200
G01 Y4.6500
G01 X-4.2000
G01 Y7.3500
G01 X120.2000
G01 Y10.0500
G01 X-4.2000
G00 Z5.0000
G00 Z-1.5000
G01 Z-4.0000 F600
G01 X-4.5000 F1200
G01 Y10.5000
G01 X120.5000
G01 Y1.5000
G01 X-4.5000
G01 Y10.0500
G01 X-4.2000
G00 Z5.0000
G00 Y1.9500
G00 Z-3.5000
G01 Z-6.0000 F600
G01 X120.2000 F1200
G01 Y4.6500
G01 X-4.2000
G01 Y7.3500
G01 X120.2000
G01 Y10.0500
G01 X-4.2000
G00 Z5.0000
G00 Z-3.5000
G01 Z-6.0000 F600
G01 X-4.5000 F1200
G01 Y10.5000
G01 X120.5000
G01 Y1.5000
G01 X-4.5000
G01 Y10.0500
G01 X-4.2000
G00 Z5.0000


(Nr. 2: Ausschnitt 2)
G00 X26.7100 Y39.9436 Z5.0000
G00 Z0.5000
G01 Z-2.0000 F600
G02 X41.5532 Y122.6261 I31.2900 J37.0564 F1200
G02 X105.7367 Y68.4303 I16.4468 J-45.6261
G02 X26.7100 Y39.9436 I-47.7367 J8.5697
G01 Z-4.0000 F600
G02 X41.5532 Y122.6261 I31.2900 J37.0564 F1200
G02 X105.7367 Y68.4303 I16.4468 J-45.6261
G02 X26.7100 Y39.9436 I-47.7367 J8.5697
G01 Z-6.0000 F600
G02 X41.5532 Y122.6261 I31.2900 J37.0564 F1200
G02 X105.7367 Y68.4303 I16.4468 J-45.6261
G02 X26.7100 Y39.9436 I-47.7367 J8.5697
G01 Z-8.0000 F600
G02 X41.5532 Y122.6261 I31.2900 J37.0564 F1200
G02 X105.7367 Y68.4303 I16.4468 J-45.6261
G02 X26.7100 Y39.9436 I-47.7367 J8.5697
G01 Z-10.0000 F600
G02 X41.5532 Y122.6261 I31.2900 J37.0564 F1200
G02 X105.7367 Y68.4303 I16.4468 J-45.6261
G02 X26.7100 Y39.9436 I-47.7367 J8.5697
G01 Z-12.0000 F600
G02 X41.5532 Y122.6261 I31.2900 J37.0564 F1200
G02 X105.7367 Y68.4303 I16.4468 J-45.6261
G02 X26.7100 Y39.9436 I-47.7367 J8.5697
G00 Z5.0000


(Nr. 3: Ausschnitt 1)
G00 X-4.5000 Y135.4000 Z5.0000
G00 Z0.5000
G01 Z-2.0000 F600
G01 Y135.5000 F1200
G01 X120.5000
G01 Y135.4000
G01 X-4.5000
G01 Z-4.0000 F600
G01 Y135.5000 F1200
G01 X120.5000
G01 Y135.4000
G01 X-4.5000
G01 Z-6.0000 F600
G01 Y135.5000 F1200
G01 X120.5000
G01 Y135.4000
G01 X-4.5000
G00 Z5.0000
G00 X0.0000 Y0.0000

M05
M30
